X:120
T:120 Untitled Reel
C:Welch MS
I:abc2nwc
M:C|
L:1/8
K:G
D|G2GD BGdB|c2ce dgfg|G2GD BGdB|ecAd BGGD|
G2GD BGdB|c2ce dgfg|G2GD BGdB|ecAd BG G|
d|g2ge fafd|e2ec BGdB|c2cA BdfB|cBAG FAFD|
g2ge fafd|e2ec GdBG|cege Bdgd|ecAc B G G:|

%%sep
%%center Index
%%begintext
Page Tune Title
1 1 Ashley's Hornpipe
1 2 The College Hornpipe
1 3 Del Caros Hornpipe
2 4 The First of June
2 5 From Night Till Morn
3 6 The Gypsies Hornpipe
3 7 Hereford Hornpipe
4 8 Lord Cornwallis' Hornpipe
4 9 Miss Baker's Hornpipe
4 10 The New Speed The Plough
5 11 The New Castle Hornpipe
5 12 Richer's Hornpipe
5 13 Salt Fish And Dumplings
6 14 Stone Steps Hornpipe
6 15 Untitled Hornpipe (Back of the Haggard)
6 16 Untitled Hornpipe
7 17 Untitled Hornpipe (Roxburgh Castle)
7 18 Baker's Frolic
7 19 The Banks of Swale
8 20 La Belle Catherine or German Spaw
%%endtext
%%newpage
%%center Index
%%begintext
Page Tune Title
8 21 The Bohemian Polka
9 22 The Bugle Horn
9 23 The Camp
9 24 The Fall of Paris
10 25 Foul Weather Call
10 26 Galloway Girth
10 27 The Honeymoon
10 28 Hunt The Squirrel
11 29 Jeannet and Jeannot
12 30 Jenny Lind's Polka
12 31 Last Valentine's Day
12 32 Laura and Lenza
13 33 Miss Molly's Jid
13 34 The Original Scottische Polka
13 35 Pleal's Allemand
14 36 Polish Polka
14 37 Redowa Polka
14 38 Rink-a-Tink
15 39 The Russian Dance
15 40 Slingsby's Allemande
15 41 The Tartar
16 42 This My Lady
17 43 A Waterloo Dance
17 44 Water Loo Fair or The Henryco
18 45 Wentworth House
18 46 What A Beau My Granny Was
18 47 Unititled Polka
19 48 Untitled Polka ("Welch's 4-part")
19 49 Untitled Polka
20 50 Untitled Polka
20 51 Untitled Polka
20 52 Untitled Polka
21 53 Andrew Mack
22 54 The Ball
22 55 Bonny Part's Birth Day
22 56 Brothers in York
%%endtext
%%newpage
%%center Index
%%begintext
Page Tune Title
22 57 Captain Lanoe's Quick March
23 58 Captain O Cain
23 59 The Comical Fellow
23 60 Falmouth Assembly
24 61 The French Dance
24 62 The Golden Fish
24 63 The Haymaker's Dance
24 64 Jack's Ramble
25 65 A Jigg Ashling
25 66 A Jig By Greenland
25 67 John of Paris
25 68 Lady Mary Douglas
26 69 La Damoiselle
26 70 The Legacy or New Mown Hay (William & Nancy)
26 71 Manfrend
27 72 Morgan Ratler
27 73 Morgiana in Ireland
28 74 Morgiana in Spain
28 75 Murphy Delany
28 76 The Muses
28 77 The New Moon
29 78 Paddy Carrey
29 79 Pendean Dance in Tekile
29 80 The Pilgrim
29 81 Poor Soldier
30 82 The Rosetta
30 83 Tekili
30 84 The Troublesome Cossack
31 85 The Villagers
31 86 Waterloo
31 87 Untitled Jig
32 88 Untitled Jig (The Royal Albert)
32 89 The Bath Waltz
33 90 Brunswick Waltz
33 91 The Commet Waltz
34 92 The Duke of York's New Short Step by William Ebrington
%%endtext
%%newpage
%%center Index
%%begintext
Page Tune Title
34 93 Die Elfen Waltz
34 94 The Emperor of Alexander's Wa;tz
35 95 The French Assembly
35 96 Lady Villier's Delight
35 97 Lieber Augustine
36 98 The London Troop
36 99 My Skiff is on de Shore
37 100 When Chloe
38 101 Untitled Waltz
38 102 Untitled Waltz
39 103 Untitled Waltz
39 104 Untitled Waltz
40 105 Untitled Waltz (Michael Turner's Waltz)
40 106 The Battle of the Nile
40 107 Leavie Gordon
41 108 The Marquis of Granby's March
41 109 The New Coldstream March
41 110 Tibbie Fowler
42 111 Untitled March
42 112 Untitled March
42 113 The Grinders
43 114 Sweet Robin
43 115 Cheshire Rounds
43 116 The Dusty Miller
44 117 The Duke Of Cornwall's Reel
44 118 The Haland Ladde (Kate Dalrymple)
44 119 MacDonald's Reel  or  Lolly Pops and Bulls' Eyes
45 120 Untitled Reel
%%endtext
